X: 18671
T: I'll Remember You, Love, In My Prayers
R: waltz
M: 3/4
K: Dmajor
D2F2A2|d2f3e|d2B2d2|A4A2|B3cd2|A2G2F2|E6|E4FE|
D2F2A2|d2f3e|dB3d2|A4A2|B2c2d2|F2G2E2|D6|D2F2A2|
d4ed|c3d {e}dc|B2c2d2|A4A2|B2c2d2|A2G2F2|E6|E4FE|
D2F2A2|d2f3e|d2B2d2|A4A2|B2c2d2|F2G2E2|(D6|D6)||

